img/sale.svg

<svg width="92" height="92" viewBox="0 0 92 92" fill="none" xmlns="http://www.w3.org/2000/svg">
<circle cx="46" cy="46" r="45" stroke="#EBC317" stroke-width="2"/>
<g clip-path="url(#clip0_0_1)">
<path d="M68.5937 68.5938H23.4062" stroke="#EBC317" stroke-width="2.8125" stroke-miterlimit="10" stroke-linecap="square"/>
<path d="M50.1607 68.5938H41.8393V41H50.1607V68.5938Z" stroke="#EBC317" stroke-width="2.8125" stroke-miterlimit="10" stroke-linecap="square"/>
<path d="M35.1607 68.5938H26.8393V48H35.1607V68.5938Z" stroke="#EBC317" stroke-width="2.8125" stroke-miterlimit="10" stroke-linecap="square"/>
<path d="M65.1607 68.5938H56.8393V54H65.1607V68.5938Z" stroke="#EBC317" stroke-width="2.8125" stroke-miterlimit="10" stroke-linecap="square"/>
<path d="M51.5436 31.6853C51.5436 30.4493 51.1378 30.0804 50.7319 30.0804C50.3261 30.0804 49.9202 30.4493 49.9202 31.6853C49.9202 32.9214 50.3261 33.2903 50.7319 33.2903C51.1378 33.2903 51.5436 32.9214 51.5436 31.6853ZM47.3006 31.6853C47.3006 29.3978 48.7764 28.0881 50.7319 28.0881C52.6874 28.0881 54.1632 29.3978 54.1632 31.6853C54.1632 33.9914 52.6874 35.2827 50.7319 35.2827C48.7764 35.2827 47.3006 33.9914 47.3006 31.6853ZM42.0798 25.5976C42.0798 24.3616 41.674 23.9926 41.2681 23.9926C40.8623 23.9926 40.4564 24.3616 40.4564 25.5976C40.4564 26.8336 40.8623 27.2026 41.2681 27.2026C41.674 27.2026 42.0798 26.8336 42.0798 25.5976ZM48.8503 22.1847H51.9679L43.1498 35.0982H40.0321L48.8503 22.1847ZM37.8368 25.5976C37.8368 23.31 39.3127 22.0002 41.2681 22.0002C43.2236 22.0002 44.6995 23.31 44.6995 25.5976C44.6995 27.9036 43.2236 29.195 41.2681 29.195C39.3127 29.195 37.8368 27.9036 37.8368 25.5976Z" fill="#EBC317"/>
</g>
<defs>
<clipPath id="clip0_0_1">
<rect width="48" height="48" fill="white" transform="translate(22 22)"/>
</clipPath>
</defs>
</svg>

<svg width="92" height="92" fill="none" xmlns="http://www.w3.org/2000/svg"><circle cx="46" cy="46" r="45" stroke="#EBC317" stroke-width="2"/><g clip-path="url(#a)"><path d="M68.594 68.594H23.406M50.16 68.594h-8.32V41h8.32v27.594zM35.16 68.594h-8.32V48h8.32v20.594zM65.16 68.594h-8.32V54h8.32v14.594z" stroke="#EBC317" stroke-width="2.813" stroke-miterlimit="10" stroke-linecap="square"/><path d="M51.544 31.685c0-1.236-.406-1.605-.812-1.605s-.812.37-.812 1.605c0 1.236.406 1.605.812 1.605s.812-.369.812-1.605zm-4.243 0c0-2.287 1.475-3.597 3.43-3.597 1.956 0 3.432 1.31 3.432 3.597 0 2.306-1.476 3.598-3.431 3.598-1.956 0-3.431-1.292-3.431-3.598zm-5.221-6.087c0-1.236-.406-1.605-.812-1.605s-.812.369-.812 1.605.406 1.605.812 1.605.812-.37.812-1.605zm6.77-3.413h3.118L43.15 35.098h-3.118l8.818-12.913zm-11.013 3.413c0-2.288 1.476-3.598 3.431-3.598 1.956 0 3.431 1.31 3.431 3.598 0 2.306-1.475 3.597-3.43 3.597-1.956 0-3.432-1.291-3.432-3.597z" fill="#EBC317"/></g><defs><clipPath id="a"><path fill="#fff" transform="translate(22 22)" d="M0 0h48v48H0z"/></clipPath></defs></svg>
